packages/foundations/assets/icons/functional/images/maps/location_arrow_north_28.svg

<svg width="28" height="28" viewBox="0 0 28 28" fill="none" xmlns="http://www.w3.org/2000/svg">
<g clip-path="url(#clip0_2213_4820)">
<path fill-rule="evenodd" clip-rule="evenodd" d="M15.3612 19.1327C15.0016 18.7704 14.5168 18.2026 13.9997 18.2026C13.4861 18.2026 13.0031 18.7687 12.6391 19.1327L9.85131 21.9213L13.9997 10.8963L18.1489 21.9213L15.3612 19.1327ZM20.9323 24.3486L14.8231 8.11818C14.6507 7.65968 14.2534 7.52406 13.9997 7.5214C13.7468 7.51881 13.3417 7.67543 13.1833 8.09718L7.06706 24.3494C6.92269 24.7336 7.01631 25.1676 7.30681 25.4589C7.71544 25.8676 8.37869 25.8676 8.78819 25.4589L13.8763 20.3699C13.9446 20.3017 14.0557 20.3017 14.1239 20.3699L19.2121 25.4581C19.5026 25.7486 19.9366 25.8431 20.3216 25.6978C20.8623 25.4939 21.1362 24.8902 20.9323 24.3486ZM14 6.29285C14.483 6.29285 14.875 5.90085 14.875 5.41785V3.1096C14.8732 2.57585 14.4488 2.2346 14 2.2346C13.517 2.2346 13.125 2.6266 13.125 3.1096V5.41785C13.1258 5.9166 13.5511 6.29285 14 6.29285Z" fill="#1A1C1F"/>
</g>
<defs>
<clipPath id="clip0_2213_4820">
<rect width="28" height="28" fill="white"/>
</clipPath>
</defs>
</svg>

<svg xmlns="http://www.w3.org/2000/svg" width="28" height="28" fill="none"><g clip-path="url(#a)"><path fill="#1A1C1F" fill-rule="evenodd" d="M15.361 19.133c-.36-.363-.844-.93-1.361-.93-.514 0-.997.566-1.36.93L9.85 21.92 14 10.896l4.149 11.025zm5.571 5.216-6.109-16.23A.89.89 0 0 0 14 7.52a.89.89 0 0 0-.817.576L7.067 24.35a1.048 1.048 0 0 0 1.721 1.11l5.088-5.09a.175.175 0 0 1 .248 0l5.088 5.09a1.047 1.047 0 0 0 1.72-1.11M14 6.293a.875.875 0 0 0 .875-.875V3.11A.865.865 0 0 0 14 2.235a.875.875 0 0 0-.875.875v2.308c0 .499.426.875.875.875" clip-rule="evenodd"/></g><defs><clipPath id="a"><path fill="#fff" d="M0 0h28v28H0z"/></clipPath></defs></svg>
